app/assets/v2/images/avatar/HairStyle/womanhair4-B28E28.svg

<svg xmlns="http://www.w3.org/2000/svg" style="isolation:isolate" width="899.5" height="1499"><defs><clipPath id="a"><path d="M0 0h899.5v1499H0z"/></clipPath></defs><g clip-path="url(#a)"><path d="M801.4 709.6c59.7-4.9 59.7-81.9 59.7-81.9 0-25.5-6.7-44.7-14-58.1-15.6-28.5-20-62.2-8.9-92.7.1-.2.2-.4.2-.6 8.7-23.4 7.6-49.7-5.9-70.6-10.1-15.6-24.3-29.7-38.4-41.2-27-22.3-49.6-49.7-67.2-79.9-25.6-43.9-63-67.7-63-67.7-137.7-98.6-230.1-16.4-230.1-16.4s-92.5-82.2-230.1 16.4c0 0-37.4 23.8-63.1 67.7-17.7 30.3-40.2 57.7-67.2 79.9-14 11.5-28.3 25.6-38.4 41.2-13.5 20.9-14.6 47.3-5.9 70.6.1.2.1.4.2.6 11.2 30.5 6.7 64.2-8.9 92.7-7.3 13.4-14 32.6-14 58.1 0 0 0 77.1 59.7 81.9 2.8.2 4.8 3 3.6 5.6l-.3.6C45.7 769 56.8 831 96.6 873.6c33.4 35.9 62.3 86.2 24.9 132.1 0 0 123.3 18.5 147.9-65.7h10.5c-8-6.3-15.8-12.8-23.2-19.8-77.8-73.9-85.9-189.3-85.9-292.5 0-42.7 19.8-80.9 53.7-106.8l203.2-167.6c3.5-2.9 8.6-2.9 12.2 0L643 520.8c33.9 25.9 53.7 64.1 53.7 106.8 0 103.1 8.3 218.6-69.5 292.5-8 7.6-17.9 14.7-28.5 21.4 25.9 82.2 147.3 64.1 147.3 64.1-37.4-45.9-8.5-96.2 24.9-132.1 39.7-42.6 50.9-104.6 27.1-157.9l-.3-.6c-1.1-2.5.8-5.2 3.7-5.4z" fill="#B28E28" vector-effect="non-scaling-stroke" stroke-width="26.9" stroke="#000" stroke-miterlimit="10"/></g></svg>

<?xml version="1.0" standalone="no"?><!-- Generator: Gravit.io --><svg xmlns="http://www.w3.org/2000/svg" xmlns:xlink="http://www.w3.org/1999/xlink" style="isolation:isolate" viewBox="0 0 899.5 1499" width="899.5" height="1499"><defs><clipPath id="_clipPath_lcv2e6Qpkcyln9T6tTYthWjthDADf79u"><rect width="899.5" height="1499"/></clipPath></defs><g clip-path="url(#_clipPath_lcv2e6Qpkcyln9T6tTYthWjthDADf79u)"><path d=" M 801.4 709.6 C 861.1 704.7 861.1 627.7 861.1 627.7 C 861.1 602.2 854.4 583 847.1 569.6 C 831.5 541.1 827.1 507.4 838.2 476.9 C 838.3 476.7 838.4 476.5 838.4 476.3 C 847.1 452.9 846 426.6 832.5 405.7 C 822.4 390.1 808.2 376 794.1 364.5 C 767.1 342.2 744.5 314.8 726.9 284.6 C 701.3 240.7 663.9 216.9 663.9 216.9 C 526.2 118.3 433.8 200.5 433.8 200.5 C 433.8 200.5 341.3 118.3 203.7 216.9 C 203.7 216.9 166.3 240.7 140.6 284.6 C 122.9 314.9 100.4 342.3 73.4 364.5 C 59.4 376 45.1 390.1 35 405.7 C 21.5 426.6 20.4 453 29.1 476.3 C 29.2 476.5 29.2 476.7 29.3 476.9 C 40.5 507.4 36 541.1 20.4 569.6 C 13.1 583 6.4 602.2 6.4 627.7 C 6.4 627.7 6.4 704.8 66.1 709.6 C 68.9 709.8 70.9 712.6 69.7 715.2 C 69.6 715.4 69.5 715.6 69.4 715.8 C 45.7 769 56.8 831 96.6 873.6 C 130 909.5 158.9 959.8 121.5 1005.7 C 121.5 1005.7 244.8 1024.2 269.4 940 L 279.9 940 C 271.9 933.7 264.1 927.2 256.7 920.2 C 178.9 846.3 170.8 730.9 170.8 627.7 C 170.8 585 190.6 546.8 224.5 520.9 L 427.7 353.3 C 431.2 350.4 436.3 350.4 439.9 353.3 L 643 520.8 C 676.9 546.7 696.7 584.9 696.7 627.6 C 696.7 730.7 705 846.2 627.2 920.1 C 619.2 927.7 609.3 934.8 598.7 941.5 C 624.6 1023.7 746 1005.6 746 1005.6 C 708.6 959.7 737.5 909.4 770.9 873.5 C 810.6 830.9 821.8 768.9 798 715.6 C 797.9 715.4 797.8 715.2 797.7 715 C 796.6 712.5 798.5 709.8 801.4 709.6 Z " fill="rgb(178,142,40)" vector-effect="non-scaling-stroke" stroke-width="26.9" stroke="rgb(0,0,0)" stroke-linejoin="miter" stroke-linecap="butt" stroke-miterlimit="10"/></g></svg>
